src/actions/24/object-rotate-left.svg

<svg xmlns="http://www.w3.org/2000/svg" viewBox="0 0 24 24">
  <defs id="defs3051">
    <style type="text/css" id="current-color-scheme">
      .ColorScheme-Text {
        color:#363636;
      }
      </style>
  </defs>
 <path style="fill:currentColor;fill-opacity:1;stroke:none" 
     d="M 13.400391 4 L 10.107422 7.2929688 L 9.9003906 7.5 L 10.107422 7.7070312 L 13.400391 11 L 14.107422 10.292969 L 11.814453 8 L 14.099609 8 L 15 8 L 15 7 L 14.099609 7 L 11.814453 7 L 14.107422 4.7070312 L 13.400391 4 z M 16.5 7 C 16.223 7 16 7.223 16 7.5 C 16 7.777 16.223 8 16.5 8 C 16.777 8 17 7.777 17 7.5 C 17 7.223 16.777 7 16.5 7 z M 7.9492188 9 L 3 13.949219 L 9.0507812 20 L 14 15.050781 L 7.9492188 9 z M 19.5 9 C 19.223 9 19 9.223 19 9.5 C 19 9.777 19.223 10 19.5 10 C 19.777 10 20 9.777 20 9.5 C 20 9.223 19.777 9 19.5 9 z M 7.9492188 10.414062 L 12.726562 15.191406 L 9.1914062 18.726562 L 4.4140625 13.949219 L 7.9492188 10.414062 z M 20.5 12 C 20.223 12 20 12.223 20 12.5 C 20 12.777 20.223 13 20.5 13 C 20.777 13 21 12.777 21 12.5 C 21 12.223 20.777 12 20.5 12 z M 19.5 15 C 19.223 15 19 15.223 19 15.5 C 19 15.777 19.223 16 19.5 16 C 19.777 16 20 15.777 20 15.5 C 20 15.223 19.777 15 19.5 15 z M 16.5 17 C 16.223 17 16 17.223 16 17.5 C 16 17.777 16.223 18 16.5 18 C 16.777 18 17 17.777 17 17.5 C 17 17.223 16.777 17 16.5 17 z "
     class="ColorScheme-Text"
     />
</svg>

<svg xmlns="http://www.w3.org/2000/svg" viewBox="0 0 24 24">
    <path d="m13.4 4-3.293 3.293L9.9 7.5l.207.207L13.4 11l.707-.707L11.814 8H15V7h-3.186l2.293-2.293L13.4 4zm3.1 3a.499.499 0 1 0 0 1 .499.499 0 1 0 0-1zM7.95 9 3 13.95 9.05 20 14 15.05 7.95 9zM19.5 9a.499.499 0 1 0 0 1 .499.499 0 1 0 0-1zM7.95 10.414l4.777 4.777-3.536 3.536-4.777-4.778 3.535-3.535zM20.5 12a.499.499 0 1 0 0 1 .499.499 0 1 0 0-1zm-1 3a.499.499 0 1 0 0 1 .499.499 0 1 0 0-1zm-3 2a.499.499 0 1 0 0 1 .499.499 0 1 0 0-1z" style="fill:currentColor;fill-opacity:1;stroke:none;color:#050505;opacity:.7"/>
</svg>
